X: 31722
T: Pat Burke's
R: jig
M: 6/8
K: Dmajor
|:G|FAD FAD|dce dAF|(3EFG_C EG_C|_cBd _cAG|
FAD FAD|dce dAF|EFG BAG|1 FAE ~D2:|2 FAE ~D2||
|:e|fed ceA|ceA ceA|fed faf|gec ~d2e|
fed ceA|ceA cBA|EFG BAG|1 FAE D2:|2 FAE D2||

